X: 19291
T: J. B. Milne
R: polka
M: 2/4
K: Amajor
cd|efed c2 A2|E2 A2 c4|cedc B2 A2|d6 Bc|
dedc B2 G2|E2 G2 B4|BdcB A2 B2|c6 cd|
efed c2 A2|E2 A2 c4|cedc B2 A2|f4 f2 fg|
afdA F2 ag|fecA E2 gf|(3efe ^de f2 G2|A6||
cd|e2 c2 f2 c2|e2 c2 f2 c2|e2 ^de fe=dc|d6 Bc|
d2 B2 e2 B2|d2 B2 e2 B2|d2 cd edcB|c4 c2 cd|
e2 c2 f2 c2|e2 c2 f2 c2|a2 ga baga|f6 fg|
abag fagf|fecA E2 gf|(3efe ^de f2 G2|A6||

